images/indikatorenset/4293.svg

<?xml version="1.0" standalone="no"?><!DOCTYPE svg PUBLIC "-//W3C//DTD SVG 1.1//EN" "http://www.w3.org/Graphics/SVG/1.1/DTD/svg11.dtd"><svg xmlns:xlink="http://www.w3.org/1999/xlink" version="1.1" class="highcharts-root" style="font-family:arial;font-size:9pt;" xmlns="http://www.w3.org/2000/svg" width="485" height="415"><desc>Created with Highstock 5.0.14</desc><defs><clipPath id="highcharts-fxbiq4e-7"><rect x="0" y="0" width="432" height="254" fill="none"></rect></clipPath><clipPath id="highcharts-fxbiq4e-8"><rect x="0" y="0" width="432" height="254" fill="none"></rect></clipPath></defs><rect fill="#fbfbfb" class="highcharts-background" x="0" y="0" width="485" height="415" rx="0" ry="0"></rect><rect fill="none" class="highcharts-plot-background" x="43" y="90" width="432" height="254"></rect><g class="highcharts-label" style="cursor:pointer;" transform="translate(10,451)"><text x="0" y="0"><tspan>&gt; Indikator-Details</tspan></text></g><g class="highcharts-pane-group"></g><g class="highcharts-grid highcharts-xaxis-grid "><path fill="none" class="highcharts-grid-line" d="M 78.5 90 L 78.5 344" opacity="1"></path><path fill="none" class="highcharts-grid-line" d="M 114.5 90 L 114.5 344" opacity="1"></path><path fill="none" class="highcharts-grid-line" d="M 150.5 90 L 150.5 344" opacity="1"></path><path fill="none" class="highcharts-grid-line" d="M 186.5 90 L 186.5 344" opacity="1"></path><path fill="none" class="highcharts-grid-line" d="M 222.5 90 L 222.5 344" opacity="1"></path><path fill="none" class="highcharts-grid-line" d="M 258.5 90 L 258.5 344" opacity="1"></path><path fill="none" class="highcharts-grid-line" d="M 294.5 90 L 294.5 344" opacity="1"></path><path fill="none" class="highcharts-grid-line" d="M 330.5 90 L 330.5 344" opacity="1"></path><path fill="none" class="highcharts-grid-line" d="M 366.5 90 L 366.5 344" opacity="1"></path><path fill="none" class="highcharts-grid-line" d="M 402.5 90 L 402.5 344" opacity="1"></path><path fill="none" class="highcharts-grid-line" d="M 438.5 90 L 438.5 344" opacity="1"></path><path fill="none" class="highcharts-grid-line" d="M 474.5 90 L 474.5 344" opacity="1"></path><path fill="none" class="highcharts-grid-line" d="M 42.5 90 L 42.5 344" opacity="1"></path></g><g class="highcharts-grid highcharts-yaxis-grid "><path fill="none" stroke="#e6e6e6" stroke-width="1" class="highcharts-grid-line" d="M 43 344.5 L 475 344.5" opacity="1"></path><path fill="none" stroke="#e6e6e6" stroke-width="1" class="highcharts-grid-line" d="M 43 281.5 L 475 281.5" opacity="1"></path><path fill="none" stroke="#e6e6e6" stroke-width="1" class="highcharts-grid-line" d="M 43 217.5 L 475 217.5" opacity="1"></path><path fill="none" stroke="#e6e6e6" stroke-width="1" class="highcharts-grid-line" d="M 43 154.5 L 475 154.5" opacity="1"></path><path fill="none" stroke="#e6e6e6" stroke-width="1" class="highcharts-grid-line" d="M 43 89.5 L 475 89.5" opacity="1"></path></g><g class="highcharts-grid highcharts-yaxis-grid "></g><rect fill="none" class="highcharts-plot-border" x="43" y="90" width="432" height="254"></rect><g class="highcharts-axis highcharts-xaxis "><path fill="none" class="highcharts-axis-line" stroke="#ccd6eb" stroke-width="1" d="M 43 344.5 L 475 344.5"></path></g><g class="highcharts-axis highcharts-yaxis "><path fill="none" class="highcharts-axis-line" d="M 43 90 L 43 344"></path></g><g class="highcharts-axis highcharts-yaxis "><path fill="none" class="highcharts-axis-line" d="M 475 90 L 475 344"></path></g><g class="highcharts-series-group"><g class="highcharts-series highcharts-series-0 highcharts-column-series highcharts-color-undefined " transform="translate(43,90) scale(1 1)" clip-path="url(#highcharts-fxbiq4e-8)"><rect x="8" y="202" width="9" height="53" fill="#FF8028" class="highcharts-point"></rect><rect x="44" y="70" width="9" height="185" fill="#FF8028" class="highcharts-point"></rect><rect x="80" y="19" width="9" height="236" fill="#FF8028" class="highcharts-point"></rect><rect x="116" y="20" width="9" height="235" fill="#FF8028" class="highcharts-point"></rect><rect x="152" y="31" width="9" height="224" fill="#FF8028" class="highcharts-point"></rect><rect x="188" y="34" width="9" height="221" fill="#FF8028" class="highcharts-point"></rect><rect x="224" y="44" width="9" height="211" fill="#FF8028" class="highcharts-point"></rect><rect x="260" y="53" width="9" height="202" fill="#FF8028" class="highcharts-point"></rect><rect x="296" y="64" width="9" height="191" fill="#FF8028" class="highcharts-point"></rect><rect x="332" y="102" width="9" height="153" fill="#FF8028" class="highcharts-point"></rect><rect x="368" y="117" width="9" height="138" fill="#FF8028" class="highcharts-point"></rect><rect x="404" y="118" width="9" height="137" fill="#FF8028" class="highcharts-point"></rect></g><g class="highcharts-markers highcharts-series-0 highcharts-column-series highcharts-color-undefined " transform="translate(43,90) scale(1 1)" clip-path="none"></g><g class="highcharts-series highcharts-series-1 highcharts-column-series highcharts-color-undefined " transform="translate(43,90) scale(1 1)" clip-path="url(#highcharts-fxbiq4e-8)"><rect x="19" y="188" width="9" height="67" fill="#B375AB" class="highcharts-point"></rect><rect x="55" y="142" width="9" height="113" fill="#B375AB" class="highcharts-point"></rect><rect x="91" y="121" width="9" height="134" fill="#B375AB" class="highcharts-point"></rect><rect x="127" y="124" width="9" height="131" fill="#B375AB" class="highcharts-point"></rect><rect x="163" y="121" width="9" height="134" fill="#B375AB" class="highcharts-point"></rect><rect x="199" y="130" width="9" height="125" fill="#B375AB" class="highcharts-point"></rect><rect x="235" y="147" width="9" height="108" fill="#B375AB" class="highcharts-point"></rect><rect x="271" y="145" width="9" height="110" fill="#B375AB" class="highcharts-point"></rect><rect x="307" y="153" width="9" height="102" fill="#B375AB" class="highcharts-point"></rect><rect x="343" y="157" width="9" height="98" fill="#B375AB" class="highcharts-point"></rect><rect x="379" y="161" width="9" height="94" fill="#B375AB" class="highcharts-point"></rect><rect x="415" y="192" width="9" height="63" fill="#B375AB" class="highcharts-point"></rect></g><g class="highcharts-markers highcharts-series-1 highcharts-column-series highcharts-color-undefined " transform="translate(43,90) scale(1 1)" clip-path="none"></g></g><text x="10" text-anchor="start" class="highcharts-title" style="color:#000000;font-size:1.1em;font-weight:bold;fill:#000000;" y="20"><tspan>Ozonschichtabbauende Stoffe in Kälteanlagen</tspan></text><text x="10" text-anchor="start" class="highcharts-subtitle" style="color:#000000;font-size:0.9em;fill:#000000;" y="38"><tspan>Kilogramm</tspan></text><g class="highcharts-legend" transform="translate(10,40)"><rect fill="none" class="highcharts-legend-box" rx="0" ry="0" x="0" y="0" width="323" height="38" visibility="visible"></rect><g><g><g class="highcharts-legend-item highcharts-column-series highcharts-color-undefined highcharts-series-0" transform="translate(12,7)"><text x="21" style="color:#333333;font-size:1em;font-weight:normal;cursor:pointer;fill:#333333;" text-anchor="start" y="15"><tspan>Kanton Basel-Stadt</tspan></text><rect x="2" y="4" width="12" height="12" fill="#FF8028" class="highcharts-point"></rect></g><g class="highcharts-legend-item highcharts-column-series highcharts-color-undefined highcharts-series-1" transform="translate(156.328125,7)"><text x="21" y="15" style="color:#333333;font-size:1em;font-weight:normal;cursor:pointer;fill:#333333;" text-anchor="start"><tspan>Kanton Basel-Landschaft</tspan></text><rect x="2" y="4" width="12" height="12" fill="#B375AB" class="highcharts-point"></rect></g></g></g></g><g class="highcharts-axis-labels highcharts-xaxis-labels "><text x="61" style="color:#000000;cursor:default;font-size:0.9em;fill:#000000;" text-anchor="middle" transform="translate(0,0)" y="363" opacity="1">2005</text><text x="97" style="color:#000000;cursor:default;font-size:0.9em;fill:#000000;" text-anchor="middle" transform="translate(0,0)" y="363" opacity="1">2006</text><text x="133" style="color:#000000;cursor:default;font-size:0.9em;fill:#000000;" text-anchor="middle" transform="translate(0,0)" y="363" opacity="1">2007</text><text x="169" style="color:#000000;cursor:default;font-size:0.9em;fill:#000000;" text-anchor="middle" transform="translate(0,0)" y="363" opacity="1">2008</text><text x="205" style="color:#000000;cursor:default;font-size:0.9em;fill:#000000;" text-anchor="middle" transform="translate(0,0)" y="363" opacity="1">2009</text><text x="241" style="color:#000000;cursor:default;font-size:0.9em;fill:#000000;" text-anchor="middle" transform="translate(0,0)" y="363" opacity="1">2010</text><text x="277" style="color:#000000;cursor:default;font-size:0.9em;fill:#000000;" text-anchor="middle" transform="translate(0,0)" y="363" opacity="1">2011</text><text x="313" style="color:#000000;cursor:default;font-size:0.9em;fill:#000000;" text-anchor="middle" transform="translate(0,0)" y="363" opacity="1">2012</text><text x="349" style="color:#000000;cursor:default;font-size:0.9em;fill:#000000;" text-anchor="middle" transform="translate(0,0)" y="363" opacity="1">2013</text><text x="385" style="color:#000000;cursor:default;font-size:0.9em;fill:#000000;" text-anchor="middle" transform="translate(0,0)" y="363" opacity="1">2014</text><text x="421" style="color:#000000;cursor:default;font-size:0.9em;fill:#000000;" text-anchor="middle" transform="translate(0,0)" y="363" opacity="1">2015</text><text x="457" style="color:#000000;cursor:default;font-size:0.9em;fill:#000000;" text-anchor="middle" transform="translate(0,0)" y="363" opacity="1">2016</text></g><g class="highcharts-axis-labels highcharts-yaxis-labels "><text x="28" style="color:#000000;cursor:default;font-size:0.9em;fill:#000000;" text-anchor="end" transform="translate(0,0)" y="349" opacity="1"><tspan>0</tspan></text><text x="28" style="color:#000000;cursor:default;font-size:0.9em;fill:#000000;" text-anchor="end" transform="translate(0,0)" y="285" opacity="1"><tspan>10k</tspan></text><text x="28" style="color:#000000;cursor:default;font-size:0.9em;fill:#000000;" text-anchor="end" transform="translate(0,0)" y="222" opacity="1"><tspan>20k</tspan></text><text x="28" style="color:#000000;cursor:default;font-size:0.9em;fill:#000000;" text-anchor="end" transform="translate(0,0)" y="158" opacity="1"><tspan>30k</tspan></text><text x="28" style="color:#000000;cursor:default;font-size:0.9em;fill:#000000;" text-anchor="end" transform="translate(0,0)" y="95" opacity="1"><tspan>40k</tspan></text></g><g class="highcharts-axis-labels highcharts-yaxis-labels "></g><text x="10" class="highcharts-credits" text-anchor="start" style="cursor:default;color:#000000;font-size:0.8em;fill:#000000;" y="400"><tspan>Quelle: Bundesamt für Umwelt</tspan></text></svg>

<svg class="highcharts-root" xmlns="http://www.w3.org/2000/svg" width="485" height="415" font-family="arial" font-size="12">
    <defs>
        <clipPath id="a">
            <path fill="none" d="M0 0h432v254H0z"/>
        </clipPath>
    </defs>
    <rect fill="#fbfbfb" class="highcharts-background" width="485" height="415" rx="0" ry="0"/>
    <path fill="none" class="highcharts-plot-background" d="M43 90h432v254H43z"/>
    <text transform="translate(10 451)" class="highcharts-label" cursor="pointer">
        <tspan>&gt; Indikator-Details</tspan>
    </text>
    <g class="highcharts-grid highcharts-xaxis-grid">
        <path fill="none" class="highcharts-grid-line" d="M78.5 90v254m36-254v254m36-254v254m36-254v254m36-254v254m36-254v254m36-254v254m36-254v254m36-254v254m36-254v254m36-254v254m36-254v254M42.5 90v254"/>
    </g>
    <g class="highcharts-grid highcharts-yaxis-grid">
        <path fill="none" stroke="#e6e6e6" class="highcharts-grid-line" d="M43 344.5h432m-432-63h432m-432-64h432m-432-63h432m-432-65h432"/>
    </g>
    <path fill="none" class="highcharts-plot-border" d="M43 90h432v254H43z"/>
    <g class="highcharts-axis highcharts-xaxis">
        <path fill="none" class="highcharts-axis-line" stroke="#ccd6eb" d="M43 344.5h432"/>
    </g>
    <g class="highcharts-axis highcharts-yaxis">
        <path fill="none" class="highcharts-axis-line" d="M43 90v254"/>
    </g>
    <g class="highcharts-axis highcharts-yaxis">
        <path fill="none" class="highcharts-axis-line" d="M475 90v254"/>
    </g>
    <g class="highcharts-series-group">
        <g class="highcharts-series highcharts-series-0 highcharts-column-series highcharts-color-undefined" transform="translate(43 90)" clip-path="url(#a)">
            <path fill="#FF8028" class="highcharts-point" d="M8 202h9v53H8zM44 70h9v185h-9zm36-51h9v236h-9zm36 1h9v235h-9zm36 11h9v224h-9zm36 3h9v221h-9zm36 10h9v211h-9zm36 9h9v202h-9zm36 11h9v191h-9zm36 38h9v153h-9zm36 15h9v138h-9zm36 1h9v137h-9z"/>
        </g>
        <g class="highcharts-series highcharts-series-1 highcharts-column-series highcharts-color-undefined" transform="translate(43 90)" clip-path="url(#a)">
            <path fill="#B375AB" class="highcharts-point" d="M19 188h9v67h-9zm36-46h9v113h-9zm36-21h9v134h-9zm36 3h9v131h-9zm36-3h9v134h-9zm36 9h9v125h-9zm36 17h9v108h-9zm36-2h9v110h-9zm36 8h9v102h-9zm36 4h9v98h-9zm36 4h9v94h-9zm36 31h9v63h-9z"/>
        </g>
    </g>
    <text x="10" class="highcharts-title" y="20" color="#000" font-size="1.1em" font-weight="700">
        <tspan>Ozonschichtabbauende Stoffe in Kälteanlagen</tspan>
    </text>
    <text x="10" class="highcharts-subtitle" y="38" color="#000" font-size=".9em">
        <tspan>Kilogramm</tspan>
    </text>
    <g class="highcharts-legend" transform="translate(10 40)">
        <rect fill="none" class="highcharts-legend-box" rx="0" ry="0" width="323" height="38"/>
        <g class="highcharts-legend-item highcharts-column-series highcharts-color-undefined highcharts-series-0">
            <text x="21" y="15" color="#333" font-size="1em" font-weight="400" cursor="pointer" fill="#333" transform="translate(12 7)">
                <tspan>Kanton Basel-Stadt</tspan>
            </text>
            <path fill="#FF8028" class="highcharts-point" d="M14 11h12v12H14z"/>
        </g>
        <g class="highcharts-legend-item highcharts-column-series highcharts-color-undefined highcharts-series-1">
            <text x="21" y="15" color="#333" font-size="1em" font-weight="400" cursor="pointer" fill="#333" transform="translate(156.328 7)">
                <tspan>Kanton Basel-Landschaft</tspan>
            </text>
            <path fill="#B375AB" class="highcharts-point" d="M158.328 11h12v12h-12z"/>
        </g>
    </g>
    <g class="highcharts-axis-labels highcharts-xaxis-labels" text-anchor="middle" color="#000" cursor="default" font-size=".9em">
        <text x="61" y="363">
            2005
        </text>
        <text x="97" y="363">
            2006
        </text>
        <text x="133" y="363">
            2007
        </text>
        <text x="169" y="363">
            2008
        </text>
        <text x="205" y="363">
            2009
        </text>
        <text x="241" y="363">
            2010
        </text>
        <text x="277" y="363">
            2011
        </text>
        <text x="313" y="363">
            2012
        </text>
        <text x="349" y="363">
            2013
        </text>
        <text x="385" y="363">
            2014
        </text>
        <text x="421" y="363">
            2015
        </text>
        <text x="457" y="363">
            2016
        </text>
    </g>
    <g class="highcharts-axis-labels highcharts-yaxis-labels" text-anchor="end" color="#000" cursor="default" font-size=".9em">
        <text x="28" y="349">
            <tspan>0</tspan>
        </text>
        <text x="28" y="285">
            <tspan>10k</tspan>
        </text>
        <text x="28" y="222">
            <tspan>20k</tspan>
        </text>
        <text x="28" y="158">
            <tspan>30k</tspan>
        </text>
        <text x="28" y="95">
            <tspan>40k</tspan>
        </text>
    </g>
    <text x="10" class="highcharts-credits" y="400" cursor="default" color="#000" font-size=".8em">
        <tspan>Quelle: Bundesamt für Umwelt</tspan>
    </text>
</svg>
